suite-common/icons/assets/icons/arrowsCircle.svg

<svg xmlns="http://www.w3.org/2000/svg" fill="none" viewBox="0 0 20 20">
  <path fill="#171717" fill-rule="evenodd" d="M12.25 2.563a.62.62 0 0 0-.332.345c-.044.107-.051.39-.051 2.099.001 1.85.005 1.985.063 2.11a.62.62 0 0 0 1.14 0c.057-.123.062-.241.063-1.442 0-.72.01-1.308.021-1.308.046 0 .699.594.984.895 1.063 1.123 1.722 2.311 2 3.605.067.307.076.447.077 1.15.001.854-.024 1.071-.202 1.766a7.2 7.2 0 0 1-1.36 2.663c-.132.158-.234.316-.255.396-.125.462.304.882.773.757.255-.067.711-.605 1.172-1.38 1.006-1.695 1.384-3.771 1.02-5.602-.241-1.216-.831-2.443-1.689-3.517a14 14 0 0 0-.751-.823l-.497-.506.979-.01c1.103-.012 1.142-.02 1.343-.272.091-.115.102-.153.102-.353 0-.28-.102-.457-.325-.565-.144-.07-.175-.071-2.144-.07-1.871 0-2.006.004-2.131.062m-7.4 1.834c-.159.039-.232.09-.398.275-.828.92-1.514 2.338-1.783 3.684-.362 1.806-.143 3.42.682 5.043.425.837.931 1.516 1.745 2.343l.516.525H4.605c-1.117 0-1.148.005-1.329.211-.255.29-.153.781.199.951.144.07.175.071 2.144.07 1.871 0 2.006-.004 2.131-.062a.62.62 0 0 0 .332-.345c.044-.107.051-.39.051-2.099-.001-1.85-.005-1.985-.063-2.11a.62.62 0 0 0-1.14 0c-.057.123-.062.241-.063 1.442 0 .72-.012 1.308-.026 1.308-.015 0-.199-.155-.409-.344-1.369-1.23-2.248-2.648-2.566-4.139-.091-.428-.126-1.413-.068-1.919.157-1.35.718-2.683 1.549-3.677.196-.236.286-.409.286-.554 0-.198-.157-.46-.329-.547a.8.8 0 0 0-.454-.056"/>
</svg>

<svg xmlns="http://www.w3.org/2000/svg" fill="none" viewBox="0 0 20 20"><path d="M12.250 2.563 C 12.089 2.637,11.987 2.743,11.918 2.908 C 11.874 3.015,11.867 3.298,11.867 5.007 C 11.868 6.857,11.872 6.992,11.930 7.117 C 12.162 7.620,12.838 7.620,13.070 7.117 C 13.127 6.994,13.132 6.876,13.133 5.675 C 13.133 4.955,13.143 4.367,13.154 4.367 C 13.200 4.367,13.853 4.961,14.138 5.262 C 15.201 6.385,15.860 7.573,16.138 8.867 C 16.205 9.174,16.214 9.314,16.215 10.017 C 16.216 10.871,16.191 11.088,16.013 11.783 C 15.778 12.704,15.257 13.723,14.653 14.446 C 14.521 14.604,14.419 14.762,14.398 14.842 C 14.273 15.304,14.702 15.724,15.171 15.599 C 15.426 15.532,15.882 14.994,16.343 14.219 C 17.349 12.524,17.727 10.448,17.363 8.617 C 17.122 7.401,16.532 6.174,15.674 5.100 C 15.535 4.926,15.197 4.556,14.923 4.277 L 14.426 3.771 15.405 3.761 C 16.508 3.749,16.547 3.741,16.748 3.489 C 16.839 3.374,16.850 3.336,16.850 3.136 C 16.850 2.856,16.748 2.679,16.525 2.571 C 16.381 2.501,16.350 2.500,14.381 2.501 C 12.510 2.501,12.375 2.505,12.250 2.563 M4.850 4.397 C 4.691 4.436,4.618 4.487,4.452 4.672 C 3.624 5.592,2.938 7.010,2.669 8.356 C 2.307 10.162,2.526 11.776,3.351 13.399 C 3.776 14.236,4.282 14.915,5.096 15.742 L 5.612 16.267 4.605 16.267 C 3.488 16.267,3.457 16.272,3.276 16.478 C 3.021 16.768,3.123 17.259,3.475 17.429 C 3.619 17.499,3.650 17.500,5.619 17.499 C 7.490 17.499,7.625 17.495,7.750 17.437 C 7.911 17.363,8.013 17.257,8.082 17.092 C 8.126 16.985,8.133 16.702,8.133 14.993 C 8.132 13.143,8.128 13.008,8.070 12.883 C 7.838 12.380,7.162 12.380,6.930 12.883 C 6.873 13.006,6.868 13.124,6.867 14.325 C 6.867 15.045,6.855 15.633,6.841 15.633 C 6.826 15.633,6.642 15.478,6.432 15.289 C 5.063 14.059,4.184 12.641,3.866 11.150 C 3.775 10.722,3.740 9.737,3.798 9.231 C 3.955 7.881,4.516 6.548,5.347 5.554 C 5.543 5.318,5.633 5.145,5.633 5.000 C 5.633 4.802,5.476 4.540,5.304 4.453 C 5.187 4.393,4.973 4.366,4.850 4.397 " fill="#171717" stroke="none" fill-rule="evenodd"></path></svg>
